X: 10
T: Cearcall Doillearachd
T: Circle of Darkness
C:Phil Cunningham
M:3/4
L:1/4
K:D
A2 A | B/(d/ d2) | g2 B | B3 | A2 A | B/(d/d2) | g3 | e/(a/a2) |
|1 A2 A | B/(d/d2) | g2 B | B3 | A2 B | g3 | g/(B/B2) | d/(a/a2) :|
|2 f/(d/d2) | g2 B | d2 e | B3 | B/(e/e2) | d3 | B/(d/d2) | e3 ||
|: A3 | B/(g/g2) | f/(d/d2) | e2 f | A2 B | e3 | e/(f/f2) |
A3 | A3 B/(g/g2) | B/(d/d2) | e3 | f/(a/a2) | B2e | B2A | e3 :|

%%sep 2 1 500

